Newaita-dark/actions/24/xml-attribute-delete.svg

<svg height="24" viewBox="0 0 24 24" width="24" xmlns="http://www.w3.org/2000/svg"><g fill="#e0e0e0"><path d="m4.960938 10.605469v10.421875c0 .546875.441406.992187.992187.992187h4.464844v-1.988281h-2.976563c-.273437 0-.496094-.21875-.496094-.496094v-8.929687zm11.90625 0v2.976562h1.984374v-2.976562zm0 0"/><path d="m11.90625 2.175781c-.808594 0-1.402344.363281-2.105469.832031s-1.445312 1.101563-2.144531 1.832032c-1.394531 1.460937-2.691406 3.289062-2.691406 5.269531v.992187c-.003906.355469.183594.6875.492187.867188.304688.179688.6875.179688.996094 0 .304687-.179688.492187-.511719.488281-.867188v-.992187c0-.992187.9375-2.640625 2.144532-3.90625.605468-.632813 1.257812-1.183594 1.8125-1.550781.550781-.367188 1.074218-.5 1.007812-.5s.457031.132812 1.011719.5c.554687.367187 1.207031.917968 1.808593 1.550781 1.210938 1.265625 2.148438 2.914063 2.148438 3.90625v.992187c-.007812.355469.179688.6875.488281.867188.308594.179688.6875.179688.996094 0s.496094-.511719.488281-.867188v-.992187c0-1.980469-1.292968-3.808594-2.691406-5.269531-.699219-.730469-1.441406-1.363282-2.144531-1.832032-.699219-.46875-1.292969-.832031-2.105469-.832031zm0 0"/><path d="m11.90625 7.132812c.824219 0 1.488281.667969 1.488281 1.488282 0 .824218-.664062 1.488281-1.488281 1.488281-.820312 0-1.488281-.664063-1.488281-1.488281 0-.820313.667969-1.488282 1.488281-1.488282zm0 0"/></g><path d="m18.707031 21.171875-.699219.699219c-.195312.195312-.507812.195312-.703124 0l-4.910157-4.910156c-.195312-.195313-.195312-.507813 0-.703126l.699219-.699218c.195312-.195313.507812-.195313.703125 0l4.910156 4.910156c.195313.195312.195313.507812 0 .703125zm0 0" fill="#f44336"/><path d="m13.09375 21.871094-.699219-.699219c-.195312-.195313-.195312-.507813 0-.703125l4.910157-4.910156c.195312-.195313.507812-.195313.703124 0l.699219.699218c.195313.195313.195313.507813 0 .703126l-4.910156 4.910156c-.195313.195312-.507813.195312-.703125 0zm0 0" fill="#f44336"/></svg>

<?xml version="1.0" encoding="UTF-8"?>
<svg xmlns="http://www.w3.org/2000/svg" xmlns:xlink="http://www.w3.org/1999/xlink" width="24px" height="24px" viewBox="0 0 24 24" version="1.1">
<g id="surface1">
<path style=" stroke:none;fill-rule:nonzero;fill:rgb(87.843138%,87.843138%,87.843138%);fill-opacity:1;" d="M 4.960938 10.605469 L 4.960938 21.027344 C 4.960938 21.574219 5.402344 22.019531 5.953125 22.019531 L 10.417969 22.019531 L 10.417969 20.03125 L 7.441406 20.03125 C 7.167969 20.03125 6.945312 19.8125 6.945312 19.535156 L 6.945312 10.605469 Z M 16.867188 10.605469 L 16.867188 13.582031 L 18.851562 13.582031 L 18.851562 10.605469 Z M 16.867188 10.605469 "/>
<path style=" stroke:none;fill-rule:nonzero;fill:rgb(87.843138%,87.843138%,87.843138%);fill-opacity:1;" d="M 11.90625 2.175781 C 11.097656 2.175781 10.503906 2.539062 9.800781 3.007812 C 9.097656 3.476562 8.355469 4.109375 7.65625 4.839844 C 6.261719 6.300781 4.964844 8.128906 4.964844 10.109375 L 4.964844 11.101562 C 4.960938 11.457031 5.148438 11.789062 5.457031 11.96875 C 5.761719 12.148438 6.144531 12.148438 6.453125 11.96875 C 6.757812 11.789062 6.945312 11.457031 6.941406 11.101562 L 6.941406 10.109375 C 6.941406 9.117188 7.878906 7.46875 9.085938 6.203125 C 9.691406 5.570312 10.34375 5.019531 10.898438 4.652344 C 11.449219 4.285156 11.972656 4.152344 11.90625 4.152344 C 11.839844 4.152344 12.363281 4.285156 12.917969 4.652344 C 13.472656 5.019531 14.125 5.570312 14.726562 6.203125 C 15.9375 7.46875 16.875 9.117188 16.875 10.109375 L 16.875 11.101562 C 16.867188 11.457031 17.054688 11.789062 17.363281 11.96875 C 17.671875 12.148438 18.050781 12.148438 18.359375 11.96875 C 18.667969 11.789062 18.855469 11.457031 18.847656 11.101562 L 18.847656 10.109375 C 18.847656 8.128906 17.554688 6.300781 16.15625 4.839844 C 15.457031 4.109375 14.714844 3.476562 14.011719 3.007812 C 13.3125 2.539062 12.71875 2.175781 11.90625 2.175781 Z M 11.90625 2.175781 "/>
<path style=" stroke:none;fill-rule:nonzero;fill:rgb(87.843138%,87.843138%,87.843138%);fill-opacity:1;" d="M 11.90625 7.132812 C 12.730469 7.132812 13.394531 7.800781 13.394531 8.621094 C 13.394531 9.445312 12.730469 10.109375 11.90625 10.109375 C 11.085938 10.109375 10.417969 9.445312 10.417969 8.621094 C 10.417969 7.800781 11.085938 7.132812 11.90625 7.132812 Z M 11.90625 7.132812 "/>
<path style=" stroke:none;fill-rule:nonzero;fill:rgb(95.686275%,26.274511%,21.176471%);fill-opacity:1;" d="M 18.707031 21.171875 L 18.007812 21.871094 C 17.8125 22.066406 17.5 22.066406 17.304688 21.871094 L 12.394531 16.960938 C 12.199219 16.765625 12.199219 16.453125 12.394531 16.257812 L 13.09375 15.558594 C 13.289062 15.363281 13.601562 15.363281 13.796875 15.558594 L 18.707031 20.46875 C 18.902344 20.664062 18.902344 20.976562 18.707031 21.171875 Z M 18.707031 21.171875 "/>
<path style=" stroke:none;fill-rule:nonzero;fill:rgb(95.686275%,26.274511%,21.176471%);fill-opacity:1;" d="M 13.09375 21.871094 L 12.394531 21.171875 C 12.199219 20.976562 12.199219 20.664062 12.394531 20.46875 L 17.304688 15.558594 C 17.5 15.363281 17.8125 15.363281 18.007812 15.558594 L 18.707031 16.257812 C 18.902344 16.453125 18.902344 16.765625 18.707031 16.960938 L 13.796875 21.871094 C 13.601562 22.066406 13.289062 22.066406 13.09375 21.871094 Z M 13.09375 21.871094 "/>
</g>
</svg>
